X:358
T:The Dunboyne Straw-plaiters
B:Joyce, P. W.; "Old Irish Folk Music and Songs"
H:The name points to a vanished local industry in Dunboyne, Co. Meath
N:See #356 for further history
R:reel
A:Kildare
O:Irish
L:1/8
M:C
Z:Allan Garvin
K:D
BcBF A2 Bc|dBcA BFFA|FBBF A2 Bc|d2 eg fd d:|g|
fddc dfaf|gfed cde>g|fddc dfag|faeg fddg|
fddc dfaf|gfed cde>g|fgaf b2 ag|faeg fd d2||
